resources/svg/twitter.svg

<svg xmlns="http://www.w3.org/2000/svg" viewBox="0 0 15 15" fill="currentColor"><path d="M14.9773 1.46694C14.964 1.26637 14.8319 1.09326 14.642 1.02752C14.452 0.961775 14.2412 1.01618 14.1067 1.16562C13.7611 1.54977 13.3243 1.81009 12.881 1.92878C12.2644 1.35315 11.436 1.00002 10.5256 1.00002C8.57181 1.00002 6.98923 2.58615 6.98923 4.54112V4.98092C3.99799 4.74976 2.39838 2.47748 1.96675 1.3247C1.89698 1.13836 1.72337 1.01112 1.52468 1.00071C1.32598 0.990288 1.14002 1.09867 1.05114 1.27669C0.00441813 3.37338 -0.156858 5.40696 0.603899 7.13863C1.27032 8.65556 2.61055 9.86392 4.51008 10.6645C3.64679 11.2763 2.19379 12 0.500039 12C0.279771 12 0.0854497 12.1442 0.0215445 12.355C-0.0423608 12.5658 0.0392055 12.7935 0.222392 12.9158C1.8465 14.0003 3.54865 14.0001 5.13184 14L5.1803 14C10.041 14 13.98 10.0538 13.98 5.18751V4.70922C14.3434 4.33984 14.6264 3.96173 14.7998 3.4729C14.9932 2.92746 15.0322 2.295 14.9773 1.46694Z" fill="black"/></svg>

<svg xmlns="http://www.w3.org/2000/svg" viewBox="0 0 15 15" fill="currentColor"><path d="M14.977 1.467a.5.5 0 00-.87-.301 2.559 2.559 0 01-1.226.763A3.441 3.441 0 0010.526 1a3.539 3.539 0 00-3.537 3.541v.44C3.998 4.75 2.4 2.477 1.967 1.325a.5.5 0 00-.916-.048C.004 3.373-.157 5.407.604 7.139 1.27 8.656 2.61 9.864 4.51 10.665 3.647 11.276 2.194 12 .5 12a.5.5 0 00-.278.916C1.847 14 3.55 14 5.132 14h.048c4.861 0 8.8-3.946 8.8-8.812v-.479c.363-.37.646-.747.82-1.236.193-.546.232-1.178.177-2.006z" fill="currentColor"/></svg>
